static/assets/images/icons/stack.svg

<svg width="256" height="256" viewBox="0 0 256 256" fill="none" xmlns="http://www.w3.org/2000/svg">
<path d="M128.104 41.0003C126.784 40.9929 125.474 41.1315 124.251 41.408C123.029 41.6844 121.919 42.0932 120.985 42.6103L25.9079 95.2423C24.986 95.7524 24.2547 96.358 23.7558 97.0247C23.2568 97.6913 23 98.4058 23 99.1274C23 99.849 23.2568 100.564 23.7558 101.23C24.2547 101.897 24.986 102.502 25.9079 103.013L120.983 155.649C121.905 156.159 122.999 156.564 124.203 156.84C125.407 157.117 126.698 157.259 128.001 157.259C129.304 157.259 130.595 157.117 131.799 156.84C133.003 156.564 134.098 156.159 135.019 155.649L230.092 103.015C231.014 102.505 231.745 101.899 232.244 101.232C232.743 100.566 233 99.8511 233 99.1295C233 98.4079 232.743 97.6934 232.244 97.0268C231.745 96.3602 231.014 95.7545 230.092 95.2444L135.019 42.6103C133.183 41.5933 130.701 41.0153 128.104 41.0003ZM128.001 54.2615L209.049 99.1295L128.001 143.993L46.9573 99.1253L128.001 54.2615ZM32.9321 119.004L25.91 122.89C24.9881 123.4 24.2568 124.005 23.7579 124.672C23.2589 125.339 23.0021 126.053 23.0021 126.775C23.0021 127.496 23.2589 128.211 23.7579 128.878C24.2568 129.544 24.9881 130.15 25.91 130.66L120.983 183.294C121.905 183.804 122.999 184.209 124.203 184.486C125.407 184.762 126.698 184.904 128.001 184.904C129.304 184.904 130.595 184.762 131.799 184.486C133.003 184.209 134.098 183.804 135.019 183.294L230.092 130.66C231.014 130.15 231.745 129.544 232.243 128.877C232.742 128.21 232.998 127.496 232.998 126.774C232.998 126.053 232.74 125.338 232.241 124.672C231.742 124.005 231.01 123.4 230.088 122.89L223.07 119.004L209.036 126.771L209.045 126.775L128.001 171.643L46.9531 126.775L46.9615 126.771L32.9321 119.004ZM32.9321 146.65L25.91 150.537C24.9881 151.047 24.2568 151.653 23.7579 152.319C23.2589 152.986 23.0021 153.701 23.0021 154.422C23.0021 155.144 23.2589 155.858 23.7579 156.525C24.2568 157.192 24.9881 157.797 25.91 158.307L120.983 210.939C121.905 211.45 122.999 211.855 124.203 212.131C125.407 212.407 126.698 212.549 128.001 212.549C129.304 212.549 130.595 212.407 131.799 212.131C133.003 211.855 134.098 211.45 135.019 210.939L230.092 158.305C231.014 157.795 231.745 157.189 232.243 156.522C232.742 155.856 232.998 155.141 232.998 154.42C232.998 153.698 232.74 152.984 232.241 152.317C231.742 151.65 231.01 151.045 230.088 150.535L223.07 146.65L209.036 154.416L209.045 154.42L128.001 199.288L46.9531 154.42L46.9615 154.416L32.9321 146.65Z" fill="black"/>
</svg>

<svg xmlns="http://www.w3.org/2000/svg" fill="none" viewBox="0 0 256 256"><path fill="#000" d="M128.104 41a17.2 17.2 0 0 0-3.853.408c-1.222.276-2.332.685-3.266 1.202L25.908 95.242c-.922.51-1.653 1.116-2.152 1.783S23 98.405 23 99.127s.257 1.437.756 2.103 1.23 1.272 2.152 1.783l95.075 52.636c.922.51 2.016.915 3.22 1.191 1.204.277 2.495.419 3.798.419s2.594-.142 3.798-.419c1.204-.276 2.299-.681 3.22-1.191l95.073-52.634c.922-.51 1.653-1.116 2.152-1.783s.756-1.38.756-2.103c0-.721-.257-1.436-.756-2.102-.499-.667-1.23-1.273-2.152-1.783L135.019 42.61c-1.836-1.017-4.318-1.595-6.915-1.61m-.103 13.261 81.048 44.868-81.048 44.864-81.044-44.868zm-95.069 64.743-7.022 3.886c-.922.51-1.653 1.115-2.152 1.782s-.756 1.381-.756 2.103c0 .721.257 1.436.756 2.103.499.666 1.23 1.272 2.152 1.782l95.073 52.634c.922.51 2.016.915 3.22 1.192s2.495.418 3.798.418 2.594-.142 3.798-.418c1.204-.277 2.299-.682 3.22-1.192l95.073-52.634c.922-.51 1.653-1.116 2.151-1.783.499-.667.755-1.381.755-2.103 0-.721-.258-1.436-.757-2.102-.499-.667-1.231-1.272-2.153-1.782l-7.018-3.886-14.034 7.767.009.004-81.044 44.868-81.048-44.868.008-.004zm0 27.646-7.022 3.887c-.922.51-1.653 1.116-2.152 1.782-.5.667-.756 1.382-.756 2.103s.257 1.436.756 2.103 1.23 1.272 2.152 1.782l95.073 52.632c.922.511 2.016.916 3.22 1.192s2.495.418 3.798.418 2.594-.142 3.798-.418 2.299-.681 3.22-1.192l95.073-52.634c.922-.51 1.653-1.116 2.151-1.783.499-.666.755-1.381.755-2.102 0-.722-.258-1.436-.757-2.103s-1.231-1.272-2.153-1.782l-7.018-3.885-14.034 7.766.009.004-81.044 44.868-81.048-44.868.008-.004z"/></svg>
